X: 132
T: The Bird Catchers
%R: march, reel
B: Chas & Sam Thompson "Twenty Four Country Dances for the Year 1778", London 1778, p.66 #2
F: http://www.vwml.org/browse/browse-collections-dance-tune-books/browse-thompsons1778#
Z: 2014 John Chambers <jc:trillian.mit.edu> (added dance description)
M: 2/4
L: 1/8
K: C
% - - - - - - - - - - - - - - - - - - - - - - - - - - - - -
|:\
c2 c/B/c/d/ | c2G2 | egfd | egfd |\
c2 c/B/c/d/ | c2G2 | egfd | e2d2 :|
|:\
g2g2 | g2fe | defd | cBAG |\
g2g2 | g2ec | dfdB | c2C2 :|
% - - - - - - - - - - Dance description - - - - - - - - - -
%%begintext align
%% The 1st and 2d Cu: foot it and change
%% sides .|. the same back again :|. cross over
%% one Cu: .|: Right and Left :|:
%%endtext

%%sep 1 1 500
%%sep 1 1 500
